X:1
T: MacDonald
C:Niel Gow
R:Strathspey
Q: 128
K:Cm
M:4/4
L:1/16
|:ED|C2G2 E2c2 G2C2 E2c2|Bd3 FB3 D3B, DEFD|C2G2 E2c2 G2C2 E3g|e3c edcB c4 c2ED|
C2G2 E2c2 G2C2 E2c2|Bd3 FB3 D3B, DEFD|C2G2 E2c2 G2C2 E3g|e3c edcB c4 c2ef|
gc3 e3c g2c2 e2g2|f3B edcB f2B2 d2f2|gc3 e3c g2c2 f2a2|g3e f3d c4 cdef|
gc3 e3c g2c2 e2g2|fB3 edcB f2B2 d2f2|g3e f3d e3c d3B|G3c =BceB c4 c2:|
